X:818
T:Rob Roy MacGregor
R:Slow Strathspey
B:The Athole Collection
M:C
L:1/8
Q:1/4=140
K:E Minor
B|:G<E E2 D/F/G B,2|E>FG>A B>AG>e|G<E E2 E/F/G B,2|
E>FG>A B2 BA:|
|:c|d<G d>e d>BA>B|d>Ge>G B2 B>c|1 d>Gd>e d>BA>B|
G>EG>A B2B||2 d<B g>e d>BA>B|E>FG>A B2B||
|:^d|e>E E2 E/F/G B,2|E>FG>A B>AG>e|G<E E2 E/F/G B,2|
E>FG>A B2B:|
A|G<d d>B d<G d>c|B<e e>f g>fe>g|G<d d>B d<G d>B|
G<EG>A B2 B>A|G<d d>B d<G d>c|B<e e>f g>fe>f|
g<be<g B<gA<B|E>FG>A B2 B>A||

